src/assets/bold/lm-file-pencil-bold.svg

<svg width="24" height="24" viewBox="0 0 24 24" fill="none" xmlns="http://www.w3.org/2000/svg" fill="currentColor">
<path d="M14 2.25C14.4142 2.25 14.75 2.58579 14.75 3V7C14.75 7.0663 14.7763 7.12989 14.8232 7.17678C14.8701 7.22366 14.9337 7.25 15 7.25H19C19.4142 7.25 19.75 7.58579 19.75 8C19.75 8.41421 19.4142 8.75 19 8.75H15C14.5359 8.75 14.0908 8.56563 13.7626 8.23744C13.4344 7.90925 13.25 7.46413 13.25 7V3C13.25 2.58579 13.5858 2.25 14 2.25Z" fill="#191C1D"/>
<path d="M7 3.75C6.66848 3.75 6.35054 3.8817 6.11612 4.11612C5.8817 4.35054 5.75 4.66848 5.75 5V19C5.75 19.3315 5.8817 19.6495 6.11612 19.8839C6.35054 20.1183 6.66848 20.25 7 20.25H17C17.3315 20.25 17.6495 20.1183 17.8839 19.8839C18.1183 19.6495 18.25 19.3315 18.25 19V8.31066L13.6893 3.75H7ZM5.05546 3.05546C5.57118 2.53973 6.27065 2.25 7 2.25H14C14.1989 2.25 14.3897 2.32902 14.5303 2.46967L19.5303 7.46967C19.671 7.61032 19.75 7.80109 19.75 8V19C19.75 19.7293 19.4603 20.4288 18.9445 20.9445C18.4288 21.4603 17.7293 21.75 17 21.75H7C6.27065 21.75 5.57118 21.4603 5.05546 20.9445C4.53973 20.4288 4.25 19.7293 4.25 19V5C4.25 4.27065 4.53973 3.57118 5.05546 3.05546Z" fill="#191C1D"/>
<path d="M12.4697 10.4697C12.8755 10.0638 13.426 9.83579 14 9.83579C14.574 9.83579 15.1245 10.0638 15.5303 10.4697C15.9362 10.8755 16.1642 11.426 16.1642 12C16.1642 12.574 15.9362 13.1245 15.5303 13.5303L10.5303 18.5303C10.3897 18.671 10.1989 18.75 10 18.75H8C7.58579 18.75 7.25 18.4142 7.25 18V16C7.25 15.8011 7.32902 15.6103 7.46967 15.4697L12.4697 10.4697ZM14 11.3358C13.8238 11.3358 13.6549 11.4058 13.5303 11.5303L8.75 16.3107V17.25H9.68934L14.4697 12.4697C14.5942 12.3451 14.6642 12.1762 14.6642 12C14.6642 11.8238 14.5942 11.6549 14.4697 11.5303C14.3451 11.4058 14.1762 11.3358 14 11.3358Z" fill="#191C1D"/>
</svg>

<svg xmlns="http://www.w3.org/2000/svg" width="24" height="24" fill="currentColor" viewBox="0 0 24 24">
  <path fill="#191C1D" d="M14 2.25a.75.75 0 0 1 .75.75v4a.25.25 0 0 0 .25.25h4a.75.75 0 0 1 0 1.5h-4A1.75 1.75 0 0 1 13.25 7V3a.75.75 0 0 1 .75-.75Z"/>
  <path fill="#191C1D" d="M7 3.75A1.25 1.25 0 0 0 5.75 5v14A1.25 1.25 0 0 0 7 20.25h10A1.25 1.25 0 0 0 18.25 19V8.31l-4.56-4.56H7Zm-1.945-.695A2.75 2.75 0 0 1 7 2.25h7a.75.75 0 0 1 .53.22l5 5c.141.14.22.331.22.53v11A2.75 2.75 0 0 1 17 21.75H7A2.75 2.75 0 0 1 4.25 19V5c0-.73.29-1.429.805-1.945Z"/>
  <path fill="#191C1D" d="M12.47 10.47a2.164 2.164 0 1 1 3.06 3.06l-5 5a.75.75 0 0 1-.53.22H8a.75.75 0 0 1-.75-.75v-2a.75.75 0 0 1 .22-.53l5-5Zm1.53.866a.665.665 0 0 0-.47.194l-4.78 4.78v.94h.94l4.78-4.78a.665.665 0 0 0-.47-1.134Z"/>
</svg>
